X:1
T:Title
%%score { ( 1 3 ) | ( 2 4 ) }
L:1/8
M:6/4
K:Ab
V:1 treble nm="Grand Piano"
V:3 treble 
V:2 bass 
V:4 bass 
V:1
 z6 z4[Q:1/4=132] [CE]2 | [CE]4 [CA]2 [Ec]4 [CA]2 | B2 A2 F2 A4 A2 | B2 A2 F2 [CE]4 [EA]2 | %4
 B4 c2 B4 E2 | [CE]4 [CA]2 [Ec]4 [CA]2 | B2 A2 F2 A4 A2 | B2 A2 F2 [CE]4 [EA]2 | %8
[M:5/4] [Ec]4 [DB]2 [CA]4 |[M:3/2] B2 c2 e2 e6 | e2 e2 c2 [GB]6 | [GB]2 c2 e2 e6 | %12
[M:7/4] e2 c2 A2 [GB]4 c4- |[M:6/4] c2 A2 A2 A6 | z2 .B4 z6 | z2 .B4 z6 | %16
[M:15/8] [A,EA]2 [Ec]- [Ec]3- [Ec]2 [DB]- [DB]3- [DB]2 [CA]- | [CA]3 z3 z3 z6 |] %18
V:2
 z6 z4 [A,,A,]2 | [A,,A,]4 [A,,A,]2 [A,,A,]4 [A,,E,]2 | [D,F,D]4 [D,A,D]2 [D,F,D]4 [D,F,D]2 | %3
 [D,F,D]4 [D,A,D]2 [A,,A,]4 [C,A,]2 | [E,G,E]4 [E,A,E]2 [E,G,E]4 [E,G,D]2 | %5
 [A,,A,]4 [A,,A,]2 [A,,A,]4 [A,,E,]2 | [D,F,D]4 [D,A,D]2 [D,F,D]4 [D,F,D]2 | %7
 [D,F,D]4 [D,F,D]2 [A,,A,]4 [C,A,]2 |[M:5/4] [E,A,]4 [E,G,]2 [A,,A,]4 | %9
[M:3/2] [E,G,E]2[K:treble] [A,E]2 [A,CEA]2 [A,CEA]6 | [A,CEA]2 [A,CEA]2 [A,EA]2[K:bass] [E,E]6 | %11
 [E,E]2[K:treble] [A,EA]2 [A,CA]2 [A,CA]6 | %12
[M:7/4] [A,CA]2 [A,EA]2[K:bass] [A,CE]2 [E,E]4[K:treble] [A,EA]4- | %13
[M:6/4] [A,EA]2 [A,CE]2 [A,CE]2 [A,CE]6 | [A,CE]2 (3:2:2z2[K:treble] A- A<[K:bass]D, D,6 | %15
 D,2 (3:2:2z2[K:treble] A- A<[K:bass]D, A,,6 | %16
[M:15/8] C,2 [E,A,]- [E,A,]3- [E,A,]2 [E,G,]- [E,G,]3- [E,G,]2 [A,,A,]- | [A,,A,]3 z3 z3 z6 |] %18
V:3
 x12 | x12 | x12 | x12 | x12 | x12 | x12 | x12 |[M:5/4] x10 |[M:3/2] x12 | x12 | x12 |[M:7/4] x14 | %13
[M:6/4] x12 | A2 [DF]2- (3:2:2[DF] [A,DF]2 [DFA]6 | [DFA]2 [DF]2- (3:2:2[DF] [A,DF]2 [A,CE]6 | %16
[M:15/8] x15 | x15 |] %18
V:4
 x12 | x12 | x12 | x12 | x12 | x12 | x12 | x12 |[M:5/4] x10 |[M:3/2] x2[K:treble] x10 | %10
 x6[K:bass] x6 | x2[K:treble] x10 |[M:7/4] x4[K:bass] x6[K:treble] x4 |[M:6/4] x12 | %14
 z2 .D,4[K:treble][K:bass] z6 | z2 .D,4[K:treble][K:bass] z6 |[M:15/8] x15 | x15 |] %18

